images/app-icons/jogger.svg

<svg width="128" height="128" viewBox="0 0 128 128" fill="none" xmlns="http://www.w3.org/2000/svg">
<rect x="20" y="25" width="88" height="49" fill="#1C71D8"/>
<path d="M116 110.886C116 107.578 107 51 107 51H71V89.1134C71 89.1134 76.6363 111.129 77.3872 114.066C78.1381 117.003 86.5336 118.53 86.5336 118.53C86.5336 118.53 92.5799 120.046 97.1125 119.999C101.014 119.959 105.001 119.498 108.881 117.796C112.193 116.343 116 114.453 116 110.886Z" fill="#1A5FB4"/>
<path d="M12 110.886C12 107.578 21 51 21 51H57V89.1134C57 89.1134 51.3637 111.129 50.6128 114.066C49.8619 117.003 41.4664 118.53 41.4664 118.53C41.4664 118.53 35.4201 120.046 30.8875 119.999C26.9863 119.959 22.9992 119.498 19.1194 117.796C15.8069 116.343 12 114.453 12 110.886Z" fill="#1A5FB4"/>
<path d="M119 101.508C119 97.3379 108 26 108 26H64V74.056C64 74.056 70.8888 101.815 71.8066 105.518C72.7243 109.222 82.9856 111.147 82.9856 111.147C82.9856 111.147 90.5977 113.057 96.1375 112.999C100.906 112.948 105.557 112.368 110.298 110.221C114.347 108.389 119 106.006 119 101.508Z" fill="url(#paint0_linear_1_56)"/>
<path d="M9 101.508C9 97.3379 20 26 20 26H64V74.056C64 74.056 57.1112 101.815 56.1934 105.518C55.2757 109.222 45.0144 111.147 45.0144 111.147C45.0144 111.147 37.4023 113.057 31.8625 112.999C27.0944 112.948 22.4434 112.368 17.7015 110.221C13.6529 108.389 9 106.006 9 101.508Z" fill="url(#paint1_linear_1_56)"/>
<path d="M20 15C20 13.3431 21.3431 12 23 12H105C106.657 12 108 13.3431 108 15V26H20V15Z" fill="url(#paint2_linear_1_56)"/>
<path d="M45.754 21C42.3751 21 39.8207 23.6982 40.0099 26.8184C40.1938 29.8535 42.9195 32.1689 46.0919 31.9903C47.5106 31.9105 49.4708 30.6974 49.4708 30.6974L64 21H45.754Z" stroke="#F6F5F4" stroke-width="3"/>
<path d="M82.246 21C85.6249 21 88.1793 23.6982 87.9901 26.8184C87.8062 29.8535 85.0805 32.1689 81.9081 31.9903C80.4894 31.9105 78.5292 30.6974 78.5292 30.6974L64 21H82.246Z" stroke="#F6F5F4" stroke-width="3"/>
<path d="M60 52C60 52.5523 60.4477 53 61 53C61.5523 53 62 52.5523 62 52H60ZM60 47V52H62V47H60Z" fill="url(#paint3_linear_1_56)"/>
<path d="M66 42C66 42.5523 66.4477 43 67 43C67.5523 43 68 42.5523 68 42H66ZM66 37V42H68V37H66Z" fill="url(#paint4_linear_1_56)"/>
<path d="M59.5 46.5C59.5 47.3284 60.1716 48 61 48C61.8284 48 62.5 47.3284 62.5 46.5H59.5ZM59.5 21V46.5H62.5V21H59.5Z" fill="#F6F5F4"/>
<path d="M65.5 37C65.5 37.8284 66.1716 38.5 67 38.5C67.8284 38.5 68.5 37.8284 68.5 37L65.5 37ZM65.5 21L65.5 37L68.5 37L68.5 21L65.5 21Z" fill="#F6F5F4"/>
<defs>
<linearGradient id="paint0_linear_1_56" x1="64" y1="113" x2="119" y2="103" gradientUnits="userSpaceOnUse">
<stop offset="0.203125" stop-color="#1C71D8"/>
<stop offset="0.666667" stop-color="#3584E4"/>
<stop offset="0.828125" stop-color="#3584E4"/>
<stop offset="1" stop-color="#1C71D8"/>
</linearGradient>
<linearGradient id="paint1_linear_1_56" x1="64" y1="113" x2="9" y2="103" gradientUnits="userSpaceOnUse">
<stop offset="0.197917" stop-color="#1C71D8"/>
<stop offset="0.484375" stop-color="#3584E4"/>
<stop offset="0.572917" stop-color="#3584E4"/>
<stop offset="1" stop-color="#1C71D8"/>
</linearGradient>
<linearGradient id="paint2_linear_1_56" x1="20" y1="26" x2="108" y2="26" gradientUnits="userSpaceOnUse">
<stop stop-color="#1A5FB4"/>
<stop offset="0.796875" stop-color="#1C71D8"/>
<stop offset="1" stop-color="#1A5FB4"/>
</linearGradient>
<linearGradient id="paint3_linear_1_56" x1="60" y1="52" x2="62.5" y2="52" gradientUnits="userSpaceOnUse">
<stop stop-color="#62A0EA"/>
<stop offset="0.619792" stop-color="#99C1F1"/>
<stop offset="1" stop-color="#62A0EA"/>
</linearGradient>
<linearGradient id="paint4_linear_1_56" x1="66" y1="42" x2="68.5" y2="42" gradientUnits="userSpaceOnUse">
<stop stop-color="#62A0EA"/>
<stop offset="0.619792" stop-color="#99C1F1"/>
<stop offset="1" stop-color="#62A0EA"/>
</linearGradient>
</defs>
</svg>

<svg xmlns="http://www.w3.org/2000/svg" width="128" height="128" fill="none"><path fill="#1C71D8" d="M20 25h88v49H20z"/><path fill="#1A5FB4" d="M116 110.886c0-3.308-9-59.886-9-59.886H71v38.113l6.387 24.953c.751 2.937 9.147 4.464 9.147 4.464s6.046 1.516 10.578 1.469c3.902-.04 7.889-.501 11.769-2.203 3.312-1.453 7.119-3.343 7.119-6.91M12 110.886C12 107.578 21 51 21 51h36v38.113l-6.387 24.953c-.751 2.937-9.147 4.464-9.147 4.464s-6.046 1.516-10.579 1.469c-3.9-.04-7.888-.501-11.768-2.203-3.312-1.453-7.119-3.343-7.119-6.91"/><path fill="url(#a)" d="M119 101.508C119 97.338 108 26 108 26H64v48.056l7.807 31.462c.917 3.704 11.179 5.629 11.179 5.629s7.612 1.91 13.151 1.852c4.769-.051 9.42-.631 14.161-2.778 4.049-1.832 8.702-4.215 8.702-8.713"/><path fill="url(#b)" d="M9 101.508C9 97.338 20 26 20 26h44v48.056l-7.807 31.462c-.917 3.704-11.179 5.629-11.179 5.629s-7.612 1.91-13.152 1.852c-4.768-.051-9.419-.631-14.16-2.778-4.05-1.832-8.702-4.215-8.702-8.713"/><path fill="url(#c)" d="M20 15a3 3 0 0 1 3-3h82a3 3 0 0 1 3 3v11H20z"/><path stroke="#F6F5F4" stroke-width="3" d="M45.754 21c-3.379 0-5.933 2.698-5.744 5.818.184 3.035 2.91 5.35 6.082 5.172 1.419-.08 3.379-1.293 3.379-1.293L64 21zM82.246 21c3.379 0 5.933 2.698 5.744 5.818-.184 3.035-2.91 5.35-6.082 5.172-1.419-.08-3.379-1.293-3.379-1.293L64 21z"/><path fill="url(#d)" d="M60 52a1 1 0 1 0 2 0zm0-5v5h2v-5z"/><path fill="url(#e)" d="M66 42a1 1 0 1 0 2 0zm0-5v5h2v-5z"/><path fill="#F6F5F4" d="M59.5 46.5a1.5 1.5 0 0 0 3 0zm0-25.5v25.5h3V21zM65.5 37a1.5 1.5 0 0 0 3 0zm0-16v16h3V21z"/><defs><linearGradient id="a" x1="64" x2="119" y1="113" y2="103" gradientUnits="userSpaceOnUse"><stop offset=".203" stop-color="#1C71D8"/><stop offset=".667" stop-color="#3584E4"/><stop offset=".828" stop-color="#3584E4"/><stop offset="1" stop-color="#1C71D8"/></linearGradient><linearGradient id="b" x1="64" x2="9" y1="113" y2="103" gradientUnits="userSpaceOnUse"><stop offset=".198" stop-color="#1C71D8"/><stop offset=".484" stop-color="#3584E4"/><stop offset=".573" stop-color="#3584E4"/><stop offset="1" stop-color="#1C71D8"/></linearGradient><linearGradient id="c" x1="20" x2="108" y1="26" y2="26" gradientUnits="userSpaceOnUse"><stop stop-color="#1A5FB4"/><stop offset=".797" stop-color="#1C71D8"/><stop offset="1" stop-color="#1A5FB4"/></linearGradient><linearGradient id="d" x1="60" x2="62.5" y1="52" y2="52" gradientUnits="userSpaceOnUse"><stop stop-color="#62A0EA"/><stop offset=".62" stop-color="#99C1F1"/><stop offset="1" stop-color="#62A0EA"/></linearGradient><linearGradient id="e" x1="66" x2="68.5" y1="42" y2="42" gradientUnits="userSpaceOnUse"><stop stop-color="#62A0EA"/><stop offset=".62" stop-color="#99C1F1"/><stop offset="1" stop-color="#62A0EA"/></linearGradient></defs></svg>
